arcticons-dark/symbolic/emblems/emblem-favorite-symbolic.svg

<?xml version="1.0" encoding="UTF-8" standalone="no"?>
<svg
   id="b"
   viewBox="0 0 48 48"
   version="1.1"
   sodipodi:docname="emblem-favorite.svg"
   xmlns:inkscape="http://www.inkscape.org/namespaces/inkscape"
   xmlns:sodipodi="http://sodipodi.sourceforge.net/DTD/sodipodi-0.dtd"
   xmlns="http://www.w3.org/2000/svg"
   xmlns:svg="http://www.w3.org/2000/svg">
  <sodipodi:namedview
     id="namedview1"
     pagecolor="#ffffff"
     bordercolor="#666666"
     borderopacity="1.0"
     inkscape:showpageshadow="2"
     inkscape:pageopacity="0.0"
     inkscape:pagecheckerboard="0"
     inkscape:deskcolor="#d1d1d1" />
  <defs
     id="defs1">
    <style
       id="style1">.c{fill:none;stroke:#fff;stroke-width:2px;stroke-linecap:round;stroke-linejoin:round;}</style>
  </defs>
  <path
     style="color:#000000;fill:#ffffff;stroke-linecap:round;stroke-linejoin:round;-inkscape-stroke:none"
     d="M 15.238281,5.8398437 C 9.0439463,5.8398438 4,10.881837 4,17.076172 c 0,1.418449 0.2759114,2.770739 0.7519531,4.013672 1.8104249,5.184586 6.4770359,10.311348 10.6777349,14.242187 4.206495,3.936264 7.988281,6.642578 7.988281,6.642578 a 1.0001,1.0001 0 0 0 1.164062,0 c 0,0 3.781799,-2.706315 7.988281,-6.642578 C 36.772504,31.399783 41.440927,26.270461 43.25,21.083984 43.724804,19.842599 44,18.492671 44,17.076172 44,10.881825 38.956054,5.8398437 32.761719,5.8398437 29.178862,5.8398437 26.05593,7.5840372 24,10.203125 21.94403,7.584059 18.821138,5.8398438 15.238281,5.8398437 Z m 0,2 c 3.365313,0 6.288245,1.7979695 7.90625,4.4804693 a 1.0001,1.0001 0 0 0 1.710938,0 C 26.473362,9.6378496 29.396406,7.8398437 32.761719,7.8398437 37.875173,7.8398438 42,11.96273 42,17.076172 c 0,1.163704 -0.222919,2.272334 -0.619141,3.304687 a 1.0001,1.0001 0 0 0 -0.01172,0.0293 C 39.789011,24.955058 35.307034,30.030814 31.203125,33.871094 27.406076,37.424225 24.492602,39.50594 24,39.863281 23.507395,39.50594 20.593934,37.424224 16.796875,33.871094 12.692954,30.030815 8.2109387,24.955049 6.6308594,20.410156 a 1.0001,1.0001 0 0 0 -0.00977,-0.0293 C 6.2248697,19.34841 6,18.239928 6,17.076172 6,11.962718 10.124827,7.8398438 15.238281,7.8398437 Z"
     id="path1" />
</svg>

<?xml version="1.0" encoding="UTF-8"?>
<svg id="b" version="1.1" viewBox="0 0 48 48" xmlns="http://www.w3.org/2000/svg">
 <defs id="defs4">
  <style id="style2">.c{fill:none;stroke:#fff;stroke-width:2px;stroke-linecap:round;stroke-linejoin:round;}</style>
 </defs>
 <path id="path6" d="m15.238 5.8398c-6.1943 1e-7 -11.238 5.042-11.238 11.236 0 1.4184 0.27591 2.7707 0.75195 4.0137 1.8104 5.1846 6.477 10.311 10.678 14.242 4.2065 3.9363 7.9883 6.6426 7.9883 6.6426a1.0001 1.0001 0 0 0 1.1641 0s3.7818-2.7063 7.9883-6.6426c4.2022-3.9322 8.8706-9.0616 10.68-14.248 0.4748-1.2414 0.75-2.5913 0.75-4.0078 0-6.1943-5.0439-11.236-11.238-11.236-3.5829 0-6.7058 1.7442-8.7617 4.3633-2.056-2.6191-5.1789-4.3633-8.7617-4.3633zm0 2c3.3653 0 6.2882 1.798 7.9062 4.4805a1.0001 1.0001 0 0 0 1.7109 0c1.6179-2.6825 4.5409-4.4805 7.9062-4.4805 5.1135 1e-7 9.2383 4.1229 9.2383 9.2363 0 1.1637-0.22292 2.2723-0.61914 3.3047a1.0001 1.0001 0 0 0-0.01172 0.0293c-1.5801 4.5449-6.0621 9.6207-10.166 13.461-3.797 3.5531-6.7105 5.6348-7.2031 5.9922-0.4926-0.35734-3.4061-2.4391-7.2031-5.9922-4.1039-3.8403-8.5859-8.916-10.166-13.461a1.0001 1.0001 0 0 0-0.00977-0.0293c-0.39622-1.0324-0.62109-2.1409-0.62109-3.3047 0-5.1135 4.1248-9.2363 9.2383-9.2363z" color="#000000" fill="#fff" stroke-linecap="round" stroke-linejoin="round" style="-inkscape-stroke:none"/>
</svg>
